X:1
T:Poisoned Dwarf
M:C
L:1/8
Q:80
C:Scott MacAulay
S:Reel
K:HP
[| {gcd}c2{g}eA{gAGAG}A2{g}eA | \
{g}ce{A}ec{g}fe{g}fa | \
{gcd}c2{g}eA{gAGAG}A2{g}eA |
{g}ce{A}ec{g}dB{g}GB | | \
{gcd}c2{g}eA{gAGAG}A2{g}eA | \
{g}ce{A}ec{g}fe{g}fa |
{gcd}c2{g}eA{gAGAG}A2{g}eA | \
{g}ce{A}ec{g}fe{g}dB|]  |: \
Aa{g}aga{g}a{g}af |
{g}ea{g}agae{g}fa | \
Aa{g}aga{g}a{g}af | \
{g}ec{g}Acfe{g}dB :|
